X: 20521
T: L'ORIFLAMME
C: March.
%R: hornpipe, march
B: W. Hamilton "Universal Tune-Book" Vol. 2 Glasgow 1846 p.52 #1
S: http://s3-eu-west-1.amazonaws.com/itma.dl.printmaterial/book_pdfs/hamiltonvol2web.pdf
Z: 2016 John Chambers <jc:trillian.mit.edu>
M: C|
L: 1/8
K: G
% - - - - - - - - - - - - - - - - - - - - - - - - -
|:\
G2D>D G>GB>B | d2d>d d2cA |\
G2B>B B2A2 | G2d>d d2c2 |\
(BG)GG AGFE | D3C B,2z2 |\
A>AB>B c2zA | B>Bc>c d3zB |\
c2c2 B2dB | A2A>A A2(D/E/F/G/) |
A a3 gfed | (d^c)cc cdef |\
g4 fed^c | (ed)dd defg |\
f2f2 g2g2 | a3f ageg |\
ff f(e/f/) gg g(f/g/) | a>fa>f (ge)d^c |\
d2d>d d2z2 :|
|:\
d4 (d^c)de |\
f4 fefg | a3g fedc |\
(Bd)dd (Bd)dd | (Ac)cc (Ac)cc |\
ABcB ABce | d>cBB B2d2 |\
e2c>c c2e2 |
d2B>B B2d2 |\
c2B2 A2G2 | d2d>d d2 (G/A/B/c/) |\
B4 dcBA | G2G>G GABc |\
d4 =fedc | B2B>B BGBd |\
(gf)(gf) gfed |
(e^d)(ed) e=dcB |\
cege dcBA | B2B2 c2c2 |\
d3B dcAc | BB (BA/B/) cc c(B/c/) |\
defg dcBA | G2 [g2B2D2G,2] [g2B2D2G,2]z2 :|
% - - - - - - - - - - - - - - - - - - - - - - - - -

%%sep 1 1 500
%%sep 1 1 500

